X:0
T:Kibujt a haz az ablakon
G:dance song
M:2/4
L:1/4
Q:1/2=120
K:DDor
A>B|cd|cB|AG |\
A>B|cd|cB|AG |
F>G|AB|AG|AA |\
D>E|FG|FE|DD|]
